Papirus/16x16/apps/allegorithmic-Substance_Alchemist.svg

<svg width="16" height="16" version="1.1" xmlns="http://www.w3.org/2000/svg">
 <path d="m7.9999965 1.0019526a2.2240312 2.1538726 0 0 0-1.92648 1.074822l-5.7772689 9.6924094a2.2240312 2.1538726 0 0 0 0.002172 2.151798 2.2240312 2.1538726 0 0 0 1.9243083 1.079018h11.554537a2.2240312 2.1538726 0 0 0 1.924309-1.079018 2.2240312 2.1538726 0 0 0 0.0022-2.151798l-5.7772968-9.6924094a2.2240312 2.1538726 0 0 0-1.9264807-1.074822z" style="fill:#ff8a18"/>
 <path d="m7.9999999 3.4999935-5.0000002 3v2.5000062l7.5000003 2.5000063-2.5000001 1.499981-2.5000002-1.499981v-0.666028l-2.5-0.8339909v2.5000059l5.0000002 3 5.0000001-3v-2.5000059l-7.5000003-2.5000062 2.5000002-1.4999811 2.5000001 1.4999811v0.6660283l2.5 0.8339905v-2.5000062z" style="fill:#fffffe"/>
</svg>

<svg xmlns="http://www.w3.org/2000/svg" width="16" height="16" version="1.1">
 <path style="fill:#ff8a18" d="M 8,1.002 A 2.224,2.1539 0 0 0 6.0735,2.0768 L 0.2963,11.769 A 2.224,2.1539 0 0 0 0.29847,13.921 2.224,2.1539 0 0 0 2.2227,15 H 13.777 A 2.224,2.1539 0 0 0 15.702,13.921 2.224,2.1539 0 0 0 15.704,11.769 L 9.9265,2.0768 A 2.224,2.1539 0 0 0 8,1.002 Z"/>
 <path style="fill:#fffffe" d="M 8,3.5 3,6.5 V 9 L 10.5,11.5 8,13 5.5,11.5 V 10.834 L 3,10 V 12.5 L 8,15.5 13,12.5 V 10 L 5.5,7.5 8,6 10.5,7.5 V 8.166 L 13,9 V 6.5 Z"/>
</svg>
